Yaru++/apps/16/filemanager-app.svg

<svg height="16" width="16" xmlns="http://www.w3.org/2000/svg"><path d="m5.9941406 1c-1.2581983.0145341-2.1788928-.03056126-2.9316406.3847656-.3763739.2076635-.673226.5593818-.8378906.9980469-.1646647.4386651-.2246094.9595788-.2246094 1.6171875v9c0 .657611.059927 1.178577.2246094 1.617188.1646824.438608.4615291.788526.8378906.996093.7527229.415135 1.6735404.371652 2.9316406.386719h.0019532 4.0058592.003906c1.258193-.01454 2.178893.03056 2.931641-.384766.376374-.207663.673225-.559382.837891-.998046.164674-.438666.224609-.959577.224609-1.617188v-9c0-.657609-.059926-1.1785792-.224609-1.6171875-.164684-.4386083-.461529-.7885275-.837891-.9960937-.752723-.41513277-1.673545-.371652-2.931641-.3867188h-.001953-4.0058591zm.0058594 1h4c1.258621.015235 2.089098.059878 2.455078.2617188.183422.1011586.28722.2128583.384766.4726562s.160156.673234.160156 1.265625v9c0 .592394-.06259 1.005716-.160156 1.265625-.09756.259909-.201356.371461-.384766.472656-.365955.201915-1.196554.247012-2.455078.261719h-3.9941406-.0058594c-1.258626-.015235-2.0890997-.059878-2.4550781-.261719-.1834211-.101158-.28722-.212856-.3847657-.472656-.0975455-.2598-.1601562-.673231-.1601562-1.265625v-9c0-.5923913.062593-1.0057167.1601562-1.265625.0975636-.2599083.2013571-.3714611.3847657-.4726562.3659536-.2019143 1.1965497-.2470173 2.4550781-.2617188zm-2 1v3h8v-3zm3 1h2v1h-2zm-3 3v3h8v-3zm3 1h2v1h-2zm-3 3v3h8v-3zm3 1h2v1h-2z" fill="#808080"/></svg>

<?xml version="1.0" encoding="UTF-8" standalone="no"?>
<svg
   xmlns:osb="http://www.openswatchbook.org/uri/2009/osb"
   xmlns:dc="http://purl.org/dc/elements/1.1/"
   xmlns:cc="http://creativecommons.org/ns#"
   xmlns:rdf="http://www.w3.org/1999/02/22-rdf-syntax-ns#"
   xmlns:svg="http://www.w3.org/2000/svg"
   xmlns="http://www.w3.org/2000/svg"
   xmlns:sodipodi="http://sodipodi.sourceforge.net/DTD/sodipodi-0.dtd"
   xmlns:inkscape="http://www.inkscape.org/namespaces/inkscape"
   height="16"
   id="svg7384"
   version="1.1"
   width="16"
   sodipodi:docname="filemanager-app-symbolic.svg"
   inkscape:version="0.92.4 (5da689c313, 2019-01-14)">
  <sodipodi:namedview
     pagecolor="#ffffff"
     bordercolor="#666666"
     borderopacity="1"
     objecttolerance="10"
     gridtolerance="10"
     guidetolerance="10"
     inkscape:pageopacity="0"
     inkscape:pageshadow="2"
     inkscape:window-width="1296"
     inkscape:window-height="704"
     id="namedview7367"
     showgrid="true"
     inkscape:zoom="11.313709"
     inkscape:cx="-1.1625857"
     inkscape:cy="4.9984652"
     inkscape:window-x="70"
     inkscape:window-y="27"
     inkscape:window-maximized="1"
     inkscape:current-layer="svg7384">
    <inkscape:grid
       type="xygrid"
       id="grid7912" />
  </sodipodi:namedview>
  <metadata
     id="metadata20854">
    <rdf:RDF>
      <cc:Work
         rdf:about="">
        <dc:title />
        <dc:format>image/svg+xml</dc:format>
        <dc:type
           rdf:resource="http://purl.org/dc/dcmitype/StillImage" />
      </cc:Work>
    </rdf:RDF>
  </metadata>
  <defs
     id="defs7386">
    <linearGradient
       id="linearGradient5606"
       osb:paint="solid">
      <stop
         id="stop5608"
         offset="0"
         style="stop-color:#000000;stop-opacity:1;" />
    </linearGradient>
    <linearGradient
       id="linearGradient4526"
       osb:paint="solid">
      <stop
         id="stop4528"
         offset="0"
         style="stop-color:#ffffff;stop-opacity:1;" />
    </linearGradient>
    <linearGradient
       id="linearGradient3600-4"
       osb:paint="gradient">
      <stop
         id="stop3602-7"
         offset="0"
         style="stop-color:#f4f4f4;stop-opacity:1" />
      <stop
         id="stop3604-6"
         offset="1"
         style="stop-color:#dbdbdb;stop-opacity:1" />
    </linearGradient>
  </defs>
  <g
     id="layer9"
     label="status"
     style="display:inline"
     transform="translate(-733.00024,207)" />
  <g
     id="layer2"
     style="display:inline"
     transform="translate(-492.00004,-160)" />
  <g
     id="layer4"
     style="display:inline"
     transform="translate(-492.00004,-160)" />
  <g
     id="g1812"
     style="display:inline"
     transform="translate(-492.00004,-160)" />
  <g
     id="g6217"
     style="display:inline"
     transform="translate(-492.00004,-160)" />
  <g
     id="layer3"
     style="display:inline"
     transform="translate(-492.00004,-160)" />
  <g
     id="layer1"
     style="display:inline"
     transform="translate(-492.00004,-160)" />
  <path
     style="color:#000000;font-style:normal;font-variant:normal;font-weight:normal;font-stretch:normal;font-size:medium;line-height:normal;font-family:sans-serif;font-variant-ligatures:normal;font-variant-position:normal;font-variant-caps:normal;font-variant-numeric:normal;font-variant-alternates:normal;font-feature-settings:normal;text-indent:0;text-align:start;text-decoration:none;text-decoration-line:none;text-decoration-style:solid;text-decoration-color:#000000;letter-spacing:normal;word-spacing:normal;text-transform:none;writing-mode:lr-tb;direction:ltr;text-orientation:mixed;dominant-baseline:auto;baseline-shift:baseline;text-anchor:start;white-space:normal;shape-padding:0;clip-rule:nonzero;display:inline;overflow:visible;visibility:visible;opacity:1;isolation:auto;mix-blend-mode:normal;color-interpolation:sRGB;color-interpolation-filters:linearRGB;solid-color:#000000;solid-opacity:1;vector-effect:none;fill:#808080;fill-opacity:1;fill-rule:nonzero;stroke:none;stroke-width:1.00000012;stroke-linecap:butt;stroke-linejoin:miter;stroke-miterlimit:4;stroke-dasharray:none;stroke-dashoffset:0;stroke-opacity:1;marker:none;color-rendering:auto;image-rendering:auto;shape-rendering:auto;text-rendering:auto;enable-background:accumulate"
     d="M 5.9941406 1 C 4.7359423 1.0145341 3.8152478 0.96943874 3.0625 1.3847656 C 2.6861261 1.5924291 2.389274 1.9441474 2.2246094 2.3828125 C 2.0599447 2.8214776 2 3.3423913 2 4 L 2 13 C 2 13.657611 2.059927 14.178577 2.2246094 14.617188 C 2.3892918 15.055796 2.6861385 15.405714 3.0625 15.613281 C 3.8152229 16.028416 4.7360404 15.984933 5.9941406 16 L 5.9960938 16 L 10.001953 16 L 10.005859 16 C 11.264052 15.98546 12.184752 16.03056 12.9375 15.615234 C 13.313874 15.407571 13.610725 15.055852 13.775391 14.617188 C 13.940065 14.178522 14 13.657611 14 13 L 14 4 C 14 3.342391 13.940074 2.8214208 13.775391 2.3828125 C 13.610707 1.9442042 13.313862 1.594285 12.9375 1.3867188 C 12.184777 0.97158603 11.263955 1.0150668 10.005859 1 L 10.003906 1 L 5.9980469 1 L 5.9941406 1 z M 6 2 L 10 2 C 11.258621 2.015235 12.089098 2.059878 12.455078 2.2617188 C 12.6385 2.3628774 12.742298 2.4745771 12.839844 2.734375 C 12.93739 2.9941729 13 3.407609 13 4 L 13 13 C 13 13.592394 12.93741 14.005716 12.839844 14.265625 C 12.742284 14.525534 12.638488 14.637086 12.455078 14.738281 C 12.089123 14.940196 11.258524 14.985293 10 15 L 6.0058594 15 L 6 15 C 4.741374 14.984765 3.9109003 14.940122 3.5449219 14.738281 C 3.3615008 14.637123 3.2577019 14.525425 3.1601562 14.265625 C 3.0626107 14.005825 3 13.592394 3 13 L 3 4 C 3 3.4076087 3.062593 2.9942833 3.1601562 2.734375 C 3.2577198 2.4744667 3.3615133 2.3629139 3.5449219 2.2617188 C 3.9108755 2.0598045 4.7414716 2.0147015 6 2 z M 4 3 L 4 6 L 12 6 L 12 3 L 4 3 z M 7 4 L 9 4 L 9 5 L 7 5 L 7 4 z M 4 7 L 4 10 L 12 10 L 12 7 L 4 7 z M 7 8 L 9 8 L 9 9 L 7 9 L 7 8 z M 4 11 L 4 14 L 12 14 L 12 11 L 4 11 z M 7 12 L 9 12 L 9 13 L 7 13 L 7 12 z "
     id="path2732-8-1-77" />
</svg>
